storage/app/icons/phosphoricons/duotone/lock-key-open-duotone.svg

<svg xmlns="http://www.w3.org/2000/svg" fill="currentColor" viewBox="0 0 256 256"><path d="M208 88H48a8 8 0 0 0-8 8v112a8 8 0 0 0 8 8h160a8 8 0 0 0 8-8V96a8 8 0 0 0-8-8m-80 72a20 20 0 1 1 20-20 20 20 0 0 1-20 20" opacity=".2"/><path d="M208 80H96V56a32 32 0 0 1 32-32c15.37 0 29.2 11 32.16 25.59a8 8 0 0 0 15.68-3.18C171.32 24.15 151.2 8 128 8a48.05 48.05 0 0 0-48 48v24H48a16 16 0 0 0-16 16v112a16 16 0 0 0 16 16h160a16 16 0 0 0 16-16V96a16 16 0 0 0-16-16m0 128H48V96h160zm-80-96a28 28 0 0 0-8 54.83V184a8 8 0 0 0 16 0v-17.17a28 28 0 0 0-8-54.83m0 40a12 12 0 1 1 12-12 12 12 0 0 1-12 12"/></svg>

<svg xmlns="http://www.w3.org/2000/svg" viewBox="0 0 256 256" fill="currentColor"><path d="M208,88H48a8,8,0,0,0-8,8V208a8,8,0,0,0,8,8H208a8,8,0,0,0,8-8V96A8,8,0,0,0,208,88Zm-80,72a20,20,0,1,1,20-20A20,20,0,0,1,128,160Z" opacity="0.2"/><path d="M208,80H96V56a32,32,0,0,1,32-32c15.37,0,29.2,11,32.16,25.59a8,8,0,0,0,15.68-3.18C171.32,24.15,151.2,8,128,8A48.05,48.05,0,0,0,80,56V80H48A16,16,0,0,0,32,96V208a16,16,0,0,0,16,16H208a16,16,0,0,0,16-16V96A16,16,0,0,0,208,80Zm0,128H48V96H208V208Zm-80-96a28,28,0,0,0-8,54.83V184a8,8,0,0,0,16,0V166.83A28,28,0,0,0,128,112Zm0,40a12,12,0,1,1,12-12A12,12,0,0,1,128,152Z"/></svg>
